src/assets/icons/titleFourBlock.svg

<svg width="100%" height="100%" viewBox="0 0 650 650" fill="none" xmlns="http://www.w3.org/2000/svg">
    <path d="M114.318 38.6364V155H83.1818V63.6364H43.8636V155H12.7273V38.6364H114.318ZM247.259 96.8182C247.259 109.773 244.74 120.701 239.702 129.602C234.664 138.466 227.865 145.189 219.304 149.773C210.743 154.318 201.198 156.591 190.668 156.591C180.062 156.591 170.478 154.299 161.918 149.716C153.395 145.095 146.615 138.352 141.577 129.489C136.577 120.587 134.077 109.697 134.077 96.8182C134.077 83.8636 136.577 72.9545 141.577 64.0909C146.615 55.1894 153.395 48.4659 161.918 43.9205C170.478 39.3371 180.062 37.0455 190.668 37.0455C201.198 37.0455 210.743 39.3371 219.304 43.9205C227.865 48.4659 234.664 55.1894 239.702 64.0909C244.74 72.9545 247.259 83.8636 247.259 96.8182ZM214.759 96.8182C214.759 89.8485 213.83 83.9773 211.974 79.2045C210.156 74.3939 207.448 70.7576 203.849 68.2955C200.289 65.7955 195.895 64.5455 190.668 64.5455C185.44 64.5455 181.027 65.7955 177.429 68.2955C173.868 70.7576 171.16 74.3939 169.304 79.2045C167.486 83.9773 166.577 89.8485 166.577 96.8182C166.577 103.788 167.486 109.678 169.304 114.489C171.16 119.261 173.868 122.898 177.429 125.398C181.027 127.86 185.44 129.091 190.668 129.091C195.895 129.091 200.289 127.86 203.849 125.398C207.448 122.898 210.156 119.261 211.974 114.489C213.83 109.678 214.759 103.788 214.759 96.8182ZM319.602 85V108.636H265.057V85H319.602Z" fill="black"/>
    <path d="M120.227 552.818C120.227 565.773 117.708 576.701 112.67 585.602C107.633 594.466 100.833 601.189 92.2727 605.773C83.7121 610.318 74.1667 612.591 63.6364 612.591C53.0303 612.591 43.447 610.299 34.8864 605.716C26.3636 601.095 19.5833 594.352 14.5455 585.489C9.54545 576.587 7.04545 565.697 7.04545 552.818C7.04545 539.864 9.54545 528.955 14.5455 520.091C19.5833 511.189 26.3636 504.466 34.8864 499.92C43.447 495.337 53.0303 493.045 63.6364 493.045C74.1667 493.045 83.7121 495.337 92.2727 499.92C100.833 504.466 107.633 511.189 112.67 520.091C117.708 528.955 120.227 539.864 120.227 552.818ZM87.7273 552.818C87.7273 545.848 86.7992 539.977 84.9432 535.205C83.125 530.394 80.4167 526.758 76.8182 524.295C73.2576 521.795 68.8636 520.545 63.6364 520.545C58.4091 520.545 53.9962 521.795 50.3977 524.295C46.8371 526.758 44.1288 530.394 42.2727 535.205C40.4545 539.977 39.5455 545.848 39.5455 552.818C39.5455 559.788 40.4545 565.678 42.2727 570.489C44.1288 575.261 46.8371 578.898 50.3977 581.398C53.9962 583.86 58.4091 585.091 63.6364 585.091C68.8636 585.091 73.2576 583.86 76.8182 581.398C80.4167 578.898 83.125 575.261 84.9432 570.489C86.7992 565.678 87.7273 559.788 87.7273 552.818ZM166.719 611V494.636H198.31V540.091H240.128V494.636H271.719V611H240.128V565.545H198.31V611H166.719ZM316.946 611H282.855L321.264 494.636H364.446L402.855 611H368.764L343.31 526.682H342.401L316.946 611ZM310.582 565.091H374.673V588.727H310.582V565.091ZM517.23 538.273H485.185C484.957 535.621 484.351 533.216 483.366 531.057C482.42 528.898 481.094 527.042 479.389 525.489C477.723 523.898 475.696 522.686 473.31 521.852C470.923 520.981 468.215 520.545 465.185 520.545C459.882 520.545 455.393 521.833 451.719 524.409C448.082 526.985 445.317 530.678 443.423 535.489C441.567 540.299 440.639 546.076 440.639 552.818C440.639 559.939 441.586 565.905 443.48 570.716C445.412 575.489 448.196 579.087 451.832 581.511C455.469 583.898 459.844 585.091 464.957 585.091C467.874 585.091 470.488 584.731 472.798 584.011C475.109 583.254 477.116 582.174 478.821 580.773C480.526 579.371 481.908 577.686 482.969 575.716C484.067 573.708 484.806 571.455 485.185 568.955L517.23 569.182C516.851 574.106 515.469 579.125 513.082 584.239C510.696 589.314 507.306 594.011 502.912 598.33C498.556 602.61 493.158 606.057 486.719 608.67C480.279 611.284 472.798 612.591 464.276 612.591C453.594 612.591 444.01 610.299 435.526 605.716C427.079 601.133 420.393 594.39 415.469 585.489C410.582 576.587 408.139 565.697 408.139 552.818C408.139 539.864 410.639 528.955 415.639 520.091C420.639 511.189 427.382 504.466 435.866 499.92C444.351 495.337 453.821 493.045 464.276 493.045C471.624 493.045 478.385 494.049 484.56 496.057C490.734 498.064 496.151 501 500.81 504.864C505.469 508.689 509.219 513.405 512.06 519.011C514.901 524.617 516.624 531.038 517.23 538.273Z" fill="black"/>
    <path d="M3.63636 410.955V358.682H11.8182C14.5455 357.015 17.0076 354.667 19.2045 351.636C21.4394 348.606 23.3333 344.269 24.8864 338.625C26.4773 332.981 27.6515 325.424 28.4091 315.955L32.2727 266.636H114.545V358.682H126.818V410.955H96.3636V383H34.0909V410.955H3.63636ZM47.9545 358.682H84.0909V292.091H60.6818L58.8636 315.955C58.3333 323.076 57.5189 329.307 56.4205 334.648C55.3598 339.951 54.0909 344.572 52.6136 348.511C51.1742 352.413 49.6212 355.803 47.9545 358.682ZM154.318 384.591V360.045H160C163.333 360.045 165.966 359.78 167.898 359.25C169.867 358.682 171.383 357.697 172.443 356.295C173.542 354.856 174.47 352.848 175.227 350.273L176.364 346.864L132.727 266.636H165L189.318 313.909L207.955 266.636H239.773L199.773 357.545C197.576 362.318 194.962 366.769 191.932 370.898C188.902 374.989 185.133 378.303 180.625 380.841C176.117 383.341 170.53 384.591 163.864 384.591H154.318ZM250 266.636H289.318L316.364 332.545H317.727L344.773 266.636H384.091V383H353.182V315.727H352.273L326.364 382.091H307.727L281.818 315.273H280.909V383H250V266.636ZM429.29 383H395.199L433.608 266.636H476.79L515.199 383H481.108L455.653 298.682H454.744L429.29 383ZM422.926 337.091H487.017V360.727H422.926V337.091ZM526.406 266.636H557.997V327.545H558.906L600.27 266.636H627.088V383H595.497V321.864H594.815L552.77 383H526.406V266.636ZM588.224 235.273H607.997C607.959 242.659 605.137 248.568 599.531 253C593.925 257.394 586.368 259.591 576.861 259.591C567.277 259.591 559.683 257.394 554.077 253C548.471 248.568 545.687 242.659 545.724 235.273H565.27C565.232 237.659 566.084 239.856 567.827 241.864C569.607 243.833 572.618 244.818 576.861 244.818C580.914 244.818 583.812 243.852 585.554 241.92C587.296 239.989 588.187 237.773 588.224 235.273Z" fill="black"/>
</svg>

<svg viewBox="0 0 650 650" fill="none" xmlns="http://www.w3.org/2000/svg"><path d="M114.318 38.636V155H83.182V63.636H43.864V155H12.727V38.636h101.591zm132.941 58.182c0 12.955-2.519 23.883-7.557 32.784-5.038 8.864-11.837 15.587-20.398 20.171-8.561 4.545-18.106 6.818-28.636 6.818-10.606 0-20.19-2.292-28.75-6.875-8.523-4.621-15.303-11.364-20.341-20.227-5-8.902-7.5-19.792-7.5-32.67 0-12.955 2.5-23.865 7.5-32.728 5.038-8.902 11.818-15.625 20.341-20.17 8.56-4.584 18.144-6.876 28.75-6.876 10.53 0 20.075 2.292 28.636 6.875 8.561 4.546 15.36 11.27 20.398 20.17 5.038 8.864 7.557 19.774 7.557 32.728zm-32.5 0c0-6.97-.929-12.84-2.785-17.614-1.818-4.81-4.526-8.446-8.125-10.908-3.56-2.5-7.954-3.75-13.181-3.75-5.228 0-9.641 1.25-13.239 3.75-3.561 2.462-6.269 6.098-8.125 10.908-1.818 4.773-2.727 10.645-2.727 17.614 0 6.97.909 12.86 2.727 17.671 1.856 4.772 4.564 8.409 8.125 10.909 3.598 2.462 8.011 3.693 13.239 3.693 5.227 0 9.621-1.231 13.181-3.693 3.599-2.5 6.307-6.137 8.125-10.909 1.856-4.811 2.785-10.701 2.785-17.67zM319.602 85v23.636h-54.545V85h54.545zM120.227 552.818c0 12.955-2.519 23.883-7.557 32.784-5.037 8.864-11.837 15.587-20.397 20.171-8.56 4.545-18.106 6.818-28.637 6.818-10.606 0-20.189-2.292-28.75-6.875-8.522-4.621-15.303-11.364-20.34-20.227-5-8.902-7.5-19.792-7.5-32.671 0-12.954 2.5-23.863 7.5-32.727 5.037-8.902 11.818-15.625 20.34-20.171 8.561-4.583 18.144-6.875 28.75-6.875 10.53 0 20.076 2.292 28.637 6.875 8.56 4.546 15.36 11.269 20.397 20.171 5.038 8.864 7.557 19.773 7.557 32.727zm-32.5 0c0-6.97-.928-12.841-2.784-17.613-1.818-4.811-4.526-8.447-8.125-10.91-3.56-2.5-7.954-3.75-13.182-3.75-5.227 0-9.64 1.25-13.238 3.75-3.56 2.463-6.27 6.099-8.125 10.91-1.819 4.772-2.728 10.643-2.728 17.613 0 6.97.91 12.86 2.728 17.671 1.856 4.772 4.564 8.409 8.125 10.909 3.598 2.462 8.011 3.693 13.238 3.693 5.228 0 9.622-1.231 13.182-3.693 3.599-2.5 6.307-6.137 8.125-10.909 1.856-4.811 2.784-10.701 2.784-17.671zM166.72 611V494.636h31.591v45.455h41.818v-45.455h31.591V611h-31.591v-45.455H198.31V611h-31.591zm150.227 0h-34.091l38.409-116.364h43.182L402.855 611h-34.091l-25.454-84.318h-.909L316.946 611zm-6.364-45.909h64.091v23.636h-64.091v-23.636zm206.648-26.818h-32.045c-.228-2.652-.834-5.057-1.819-7.216a16.273 16.273 0 0 0-3.977-5.568c-1.666-1.591-3.693-2.803-6.079-3.637-2.387-.871-5.095-1.307-8.125-1.307-5.303 0-9.792 1.288-13.466 3.864-3.637 2.576-6.402 6.269-8.296 11.08-1.856 4.81-2.784 10.587-2.784 17.329 0 7.121.947 13.087 2.841 17.898 1.932 4.773 4.716 8.371 8.352 10.795 3.637 2.387 8.012 3.58 13.125 3.58 2.917 0 5.531-.36 7.841-1.08 2.311-.757 4.318-1.837 6.023-3.238a16.778 16.778 0 0 0 4.148-5.057c1.098-2.008 1.837-4.261 2.216-6.761l32.045.227c-.379 4.924-1.761 9.943-4.148 15.057-2.386 5.075-5.776 9.772-10.17 14.091-4.356 4.28-9.754 7.727-16.193 10.34-6.44 2.614-13.921 3.921-22.443 3.921-10.682 0-20.266-2.292-28.75-6.875-8.447-4.583-15.133-11.326-20.057-20.227-4.887-8.902-7.33-19.792-7.33-32.671 0-12.954 2.5-23.863 7.5-32.727 5-8.902 11.743-15.625 20.227-20.171 8.485-4.583 17.955-6.875 28.41-6.875 7.348 0 14.109 1.004 20.284 3.012 6.174 2.007 11.591 4.943 16.25 8.807 4.659 3.825 8.409 8.541 11.25 14.147 2.841 5.606 4.564 12.027 5.17 19.262zM3.636 410.955v-52.273h8.182c2.728-1.667 5.19-4.015 7.386-7.046 2.235-3.03 4.13-7.367 5.682-13.011 1.591-5.644 2.765-13.201 3.523-22.67l3.864-49.319h82.272v92.046h12.273v52.273H96.364V383H34.09v27.955H3.636zm44.319-52.273H84.09v-66.591H60.68l-1.817 23.864c-.53 7.121-1.345 13.352-2.444 18.693-1.06 5.303-2.33 9.924-3.806 13.863-1.44 3.902-2.993 7.292-4.66 10.171zm106.363 25.909v-24.546H160c3.333 0 5.966-.265 7.898-.795 1.969-.568 3.485-1.553 4.545-2.955 1.099-1.439 2.027-3.447 2.784-6.022l1.137-3.409-43.637-80.228H165l24.318 47.273 18.637-47.273h31.818l-40 90.909a76.722 76.722 0 0 1-7.841 13.353c-3.03 4.091-6.799 7.405-11.307 9.943-4.508 2.5-10.095 3.75-16.761 3.75h-9.546zM250 266.636h39.318l27.046 65.909h1.363l27.046-65.909h39.318V383h-30.909v-67.273h-.909l-25.909 66.364h-18.637l-25.909-66.818h-.909V383H250V266.636zM429.29 383h-34.091l38.409-116.364h43.182L515.199 383h-34.091l-25.455-84.318h-.909L429.29 383zm-6.364-45.909h64.091v23.636h-64.091v-23.636zm103.48-70.455h31.591v60.909h.909l41.364-60.909h26.818V383h-31.591v-61.136h-.682L552.77 383h-26.364V266.636zm61.818-31.363h19.773c-.038 7.386-2.86 13.295-8.466 17.727-5.606 4.394-13.163 6.591-22.67 6.591-9.584 0-17.178-2.197-22.784-6.591-5.606-4.432-8.39-10.341-8.353-17.727h19.546c-.038 2.386.814 4.583 2.557 6.591 1.78 1.969 4.791 2.954 9.034 2.954 4.053 0 6.951-.966 8.693-2.898 1.742-1.931 2.633-4.147 2.67-6.647z" fill="#000"/></svg>
